src/assets/icons/desktop.svg

<svg width="14" height="14" viewBox="0 0 14 14" fill="none" xmlns="http://www.w3.org/2000/svg">
<g id="desktop">
<g clip-path="url(#clip0_156_4500)">
<path id="Vector" fill-rule="evenodd" clip-rule="evenodd" d="M1.4 1.2C1.29137 1.2 1.2 1.29137 1.2 1.4V9.4C1.2 9.50863 1.29137 9.6 1.4 9.6H7H12.6C12.7086 9.6 12.8 9.50863 12.8 9.4V1.4C12.8 1.29137 12.7086 1.2 12.6 1.2H1.4ZM12.6 10.8H7.6V12.8H9.4C9.73137 12.8 10 13.0686 10 13.4C10 13.7314 9.73137 14 9.4 14H7H4.6C4.26863 14 4 13.7314 4 13.4C4 13.0686 4.26863 12.8 4.6 12.8H6.4V10.8H1.4C0.628629 10.8 0 10.1714 0 9.4V1.4C0 0.628629 0.628629 0 1.4 0H12.6C13.3714 0 14 0.628629 14 1.4V9.4C14 10.1714 13.3714 10.8 12.6 10.8Z" fill="black"/>
</g>
</g>
<defs>
<clipPath id="clip0_156_4500">
<rect width="14" height="14" fill="white"/>
</clipPath>
</defs>
</svg>

<svg xmlns="http://www.w3.org/2000/svg" fill="none" viewBox="0 0 14 14"><g clip-path="url(#a)"><path fill="#000" fill-rule="evenodd" d="M1.4 1.2c-.109 0-.2.091-.2.2v8c0 .109.091.2.2.2h11.2c.109 0 .2-.091.2-.2v-8c0-.109-.091-.2-.2-.2zm11.2 9.6h-5v2h1.8a.6.6 0 1 1 0 1.2H4.6a.6.6 0 1 1 0-1.2h1.8v-2h-5c-.771 0-1.4-.629-1.4-1.4v-8C0 .629.629 0 1.4 0h11.2c.771 0 1.4.629 1.4 1.4v8c0 .771-.629 1.4-1.4 1.4" clip-rule="evenodd"/></g><defs><clipPath id="a"><path fill="#fff" d="M0 0h14v14H0z"/></clipPath></defs></svg>
